X:1
T:Title
L:1/8
Q:1/4=100
M:3/8
K:Bb
V:1 treble nm="Grand Piano"
V:1
 GGG | B2 A | G2 F | E2 C | D2 E/F/ | D3- | D3 | GGG | B2 A | G2 F | E2 C | ED=B, | C3- | C3 | %14
w: ???~???~?????? * *||||||||||||||
 CCC | E2 E | ^F2 F | A2 A | c2 c | e3- | e3 | Gd_d | d2 B | c2 A | B2 G | ^FGA | G3- | G3 |] %28
w: ||||||||||||||

